X: 10746
T: Dr. Gilbert's
R: reel
M: 4/4
K: Eminor
gf|:eBBA ~B3^c|dBAd BAGF|EDBD GGFG|EGFE DBA2|
BEED E2DE|GEED EFGA|B/c/d ed Bdgb|afdf efgf:|
|:e~B3 g~B3|defa afdf|ggbg f2af|egfd edB/^c/d|
afdf edB^c|dBAF AFDF|EAcA Bdgb|afdf efgf:|

